X:360
T:Handsome Young Maidens, The
R:jig
C:Charlie Lennon
Z:id:hn-jig-360
M:6/8
L:1/8
K:A
aed cdB | Ace aga | bee dee | Bee bag |
aed cdB | Ace aga | bge dBG |1 BAG A2g :|2 BAG A2B ||
|: c2A EAc | dff fed | cde aec | Bff fed |
[1 c2A EAc | dff fed | cde aec | dBG A2B :|
[2 cAA eAA | dAA fed | ~e3 fdf | gfg a2g ||
P:variations
|: aed cdB | Ace ~a3 | bee dee | Bee bag |
aed cdB | Ace ~a3 | bee dBG |1 BAG A2g :|2 BAG A2B ||
|: c2A EAc | d2f fed | cde aec | ~B3 fed |
[1 c2A EAc | d2f fed | cde aec | dBG A2B :|
[2 c2A EAc | d2f fed | ~e3 f3f | gfg bag ||

